X:6
T:Merrily Kiss the Quaker's Wife
M:6/8
L:1/8
R:jig
N:Learned from David Lindquist
Z:Michael Abraham Shulman
K:G
D|:"G"GAB D2B|"C"cBA "G"BGE|GAB DEG|"D"~A3 AGE|
"G"GAB D2B|"C"cBA "G"BGE|GAB "D"D2E|1 "G"G3-G2D:|2 "G"G3-G2A|
|:"G"BGG AGG|BGG "C"AGE|"G"GAB DEG|"D"~A3 AGA|
"G"BGG AGG|BGG "C"AGE|"G"GAB "D"D2E|1 "G"G3-G2A:|2 "G"G3-G2d|
|:"G"gfg aga|"C"bge "G"dBd|~g3 gab|"D"~a3 a2d|
"G"gag "D"fgf|"C"efe "G"dBA|"C"GAB "D"D2E|1 "G"G3-G2d:|2 "G"G6||
